theme-base/src/main/assets/themes/mapsforgeV3/base/symbols/db_poi_museum.svg

<svg enable-background="new 0 0 48 48" height="48" viewBox="0 0 48 48" width="48" xmlns="http://www.w3.org/2000/svg"><path d="m9 21v14h6v-14zm12 0v14h6v-14zm-16 24h38v-6h-38zm28-24v14h6v-14zm-9-18-19 10v4h38v-4z"/></svg>

<?xml version="1.0" encoding="utf-8"?>
<!-- Generator: Adobe Illustrator 15.0.2, SVG Export Plug-In . SVG Version: 6.00 Build 0)  -->
<!DOCTYPE svg PUBLIC "-//W3C//DTD SVG 1.1//EN" "http://www.w3.org/Graphics/SVG/1.1/DTD/svg11.dtd">
<svg version="1.1" id="Vrstva_3" xmlns="http://www.w3.org/2000/svg" xmlns:xlink="http://www.w3.org/1999/xlink" x="0px" y="0px"
	 width="48px" height="48px" viewBox="0 0 48 48" enable-background="new 0 0 48 48" xml:space="preserve">
<path d="M9,21v14h6V21H9z M21,21v14h6V21H21z M5,45h38v-6H5V45z M33,21v14h6V21H33z M24,3L5,13v4h38v-4L24,3z"/>
</svg>
